icons/fedora.svg

<svg xmlns="http://www.w3.org/2000/svg" viewBox="0 0 256 255.997">
  <path fill="#294172" d="M256 128.004C256 57.31 198.691 0 127.998 0 57.336 0 .05 57.262 0 127.914v99.054c.038 16.042 13.049 29.029 29.101 29.029h98.949C198.72 255.969 256 198.679 256 128.004"/>
  <path fill="#3c6eb4" d="M165.58 30.307c-33.109 0-60.045 26.935-60.045 60.045v31.87H73.797c-33.109 0-60.045 26.937-60.045 60.046 0 33.108 26.936 60.045 60.045 60.045s60.045-26.937 60.045-60.045v-31.871h31.738c33.109 0 60.046-26.936 60.046-60.045 0-33.11-26.937-60.045-60.046-60.045zm-59.823 151.961c0 17.622-14.337 31.959-31.96 31.959s-31.96-14.337-31.96-31.959c0-17.623 14.337-31.96 31.96-31.96h31.738v.089h.222zm59.823-59.956h-31.738v-.09h-.221v-31.87c0-17.623 14.337-31.96 31.959-31.96s31.96 14.337 31.96 31.96-14.338 31.96-31.96 31.96z"/>
  <path fill="#fff" d="M178.851 32.128c-4.66-1.218-8.238-1.786-13.271-1.786-33.177 0-60.075 26.899-60.075 60.074v31.842h-25.16c-7.845 0-14.185 6.165-14.18 13.996 0 7.782 6.27 13.973 14.032 13.973l20.831.004c2.473 0 4.479 2 4.479 4.469v27.553c-.031 17.491-14.219 31.659-31.71 31.659-5.925 0-7.392-.776-11.437-.776-8.497 0-14.182 5.696-14.182 13.528.002 6.479 5.554 12.049 12.348 13.827 4.66 1.218 8.238 1.787 13.271 1.787 33.177 0 60.075-26.899 60.075-60.075v-31.841h25.16c7.845 0 14.185-6.165 14.18-13.996 0-7.783-6.27-13.973-14.032-13.973l-20.831-.004a4.475 4.475 0 0 1-4.479-4.47V90.366c.031-17.491 14.219-31.659 31.71-31.659 5.925 0 7.392.777 11.437.777 8.497 0 14.182-5.697 14.182-13.528-.002-6.48-5.554-12.05-12.348-13.828"/>
</svg>

<?xml version="1.0" encoding="UTF-8" standalone="no"?>
<svg width="256px" height="256px" viewBox="0 0 256 256" version="1.1" xmlns="http://www.w3.org/2000/svg" xmlns:xlink="http://www.w3.org/1999/xlink" preserveAspectRatio="xMidYMid">
	<g>
		<path d="M256,128.004 C256,57.31 198.691,0 127.998,0 C57.336,0 0.05,57.262 0,127.914 L0,226.968 C0.038,243.01 13.049,255.997 29.101,255.997 L128.05,255.997 C198.72,255.969 256,198.679 256,128.004" fill="#294172"></path>
		<path d="M165.58,30.307 C132.471,30.307 105.535,57.242 105.535,90.352 L105.535,122.222 L73.797,122.222 C40.688,122.222 13.752,149.159 13.752,182.268 C13.752,215.376 40.688,242.313 73.797,242.313 C106.906,242.313 133.842,215.376 133.842,182.268 L133.842,150.397 L165.58,150.397 C198.689,150.397 225.626,123.461 225.626,90.352 C225.626,57.242 198.689,30.307 165.58,30.307 L165.58,30.307 Z M105.757,182.268 C105.757,199.89 91.42,214.227 73.797,214.227 C56.174,214.227 41.837,199.89 41.837,182.268 C41.837,164.645 56.174,150.308 73.797,150.308 L105.535,150.308 L105.535,150.397 L105.757,150.397 L105.757,182.268 L105.757,182.268 Z M165.58,122.312 L133.842,122.312 L133.842,122.222 L133.621,122.222 L133.621,90.352 C133.621,72.729 147.958,58.392 165.58,58.392 C183.202,58.392 197.54,72.729 197.54,90.352 C197.54,107.975 183.202,122.312 165.58,122.312 L165.58,122.312 Z" fill="#3C6EB4"></path>
		<path d="M178.851,32.128 C174.191,30.91 170.613,30.342 165.58,30.342 C132.403,30.342 105.505,57.241 105.505,90.416 L105.505,122.258 L80.345,122.258 C72.5,122.258 66.16,128.423 66.165,136.254 C66.165,144.036 72.435,150.227 80.197,150.227 L101.028,150.231 C103.501,150.231 105.507,152.231 105.507,154.7 L105.507,182.253 C105.476,199.744 91.288,213.912 73.797,213.912 C67.872,213.912 66.405,213.136 62.36,213.136 C53.863,213.136 48.178,218.832 48.178,226.664 C48.18,233.143 53.732,238.713 60.526,240.491 C65.186,241.709 68.764,242.278 73.797,242.278 C106.974,242.278 133.872,215.379 133.872,182.203 L133.872,150.362 L159.032,150.362 C166.877,150.362 173.217,144.197 173.212,136.366 C173.212,128.583 166.942,122.393 159.18,122.393 L138.349,122.389 C135.876,122.389 133.87,120.388 133.87,117.919 L133.87,90.366 C133.901,72.875 148.089,58.707 165.58,58.707 C171.505,58.707 172.972,59.484 177.017,59.484 C185.514,59.484 191.199,53.787 191.199,45.956 C191.197,39.476 185.645,33.906 178.851,32.128" fill="#FFFFFF"></path>
	</g>
</svg>
